X: 46
T:Lasses of Stewarton, The
M:4/4
L:1/8
R:reel
K:G
g|"D"fd"A"e^c "D" dA d2|"D"FDDF A2Ag|"D"fd"C"ec "G"BG "C"c2|"C"ECCE "G"G
2G:|!
|:c|"G"(3Bcd "D"AF"D" AFDc|"G"(3Bcd "D"AF"D" A2Ac|"G"(3Bcd "D"AG "D"ABcA
|"C"GECE "G"G2G:|!
c|"G"BGAG BGAG|"D"FDDF A2Ac|"G"BGAG "D"ABcA|"C"GECE "G"G2Gc|!
"G"BGAG BGAG|"D"FDDF A2AB|"C"dBAG "D"ABcA|"C"GECE "G"G2GA||!
"D"defg afdf|"D"afdf a2fe|"D"defg afdf|"C"gece g2fe|!
"D"defg afdf|"D"afdf abaf|"D"defg abaf|"C"gece "G"gba||
